!!!!SEGMENT: pl-kk--kk-i-6--024-004_lilius-franciszek--missa-sanctus.krn
!!!cenid: 16xx:982
!!!COM: Lilius, Franciszek
!!!COM-rismid: pe30020509
!!!CDT: ~1600-1657
!!!CNT: Polish
!!!OPR: Missa
!!!OTL: Sanctus
!!!OMV: 004
!!!PDT:
!!!AGN: Sacred; Mass
!!!SMS-siglum: PL-Kk
!!!SMS-shelfmark: Kk.I.6
!!!SMS-shelfwork: 024-004 M
!!!SMS-variant:
!!!SMS-altvar:
!!!NIFC-rismid: 1001135889
!!!URL-scan: http://repozytorium.nifc.pl/skany/pl-kk-nut--i-6
!!!ONB-nifc: UWAGA: C (skan 0021-0022, s. 39-40), T (skan 0124-0125, s. 53-55), B (skan 0235-0236, s. 51-52) Części Mszy: 1 Kyrie, 2. Et in terra, 3. Patrem, 4. Sanctus, 5. Agnus Dei
!!!key:
**kern	**text	**kern	**text	**kern	**text
*part3	*part3	*part2	*part2	*part1	*part1
*staff3	*staff3	*staff2	*staff2	*staff1	*staff1
*Iempty	*	*Itenor	*	*Ivox	*
*I"Baſsus.	*	*I"Tenor.	*	*I"Cantus.	*
*I'B	*	*I'T	*	*I'S	*
*clefF4	*	*clefC4	*	*clefC4	*
*k[b-]	*	*k[b-]	*	*k[b-]	*
*g:	*	*g:	*	*g:	*
*M2/1	*	*M2/1	*	*M2/1	*
*met(C|)	*	*met(C|)	*	*met(C|)	*
=1-	=1-	=1-	=1-	=1-	=1-
0GG	SAn-	0B-	SAn-	0G	SAn-
=2-	=2-	=2-	=2-	=2-	=2-
!	!	!	!	!LO:TX:b:t=P:problem=♯ below	!
0D	.	1.A	.	0F#X	-ctus
!	!	!LO:TX:a:t=P:problem=♯ above	!	!	!
!	!	!LO:N:acc=#	!	!	!
.	.	2Bn\	.	.	.
=3-	=3-	=3-	=3-	=3-	=3-
*lig	*	*	*	*	*
1C	.	0c	.	1G	San-
1AA	.	.	.	1A	.
*Xlig	*	*	*	*	*
=4-	=4-	=4-	=4-	=4-	=4-
0GG	-ctus	2.d\	.	2.B-\	.
.	.	4c\	.	4A/	.
.	.	1B-y	.	1.G	.
=5-	=5-	=5-	=5-	=5-	=5-
0Dl;;	.	0Al;;	-ctus	.	.
.	.	.	.	4F#X/	.
.	.	.	.	4E/	.
.	.	.	.	1F#l;;	-ctus
!	!	!LO:LB:g=original	!	!	!
=6||	=6||	=6||	=6||	=6||	=6||
!	!	!LO:TX:b:t=P:problem=♯ below	!	!	!
!	!	!LO:N:acc=#	!	!	!
0GG	SAn-	0Bn	San-	0.G	SAn-
=7-	=7-	=7-	=7-	=7-	=7-
1C	.	1c	.	.	.
1BB-	.	1.d	.	2.B-\	.
.	.	.	.	4A/	.
=8-	=8-	=8-	=8-	=8-	=8-
0E-X	.	.	.	0G	.
.	.	4c\	.	.	.
.	.	4B-y\	.	.	.
.	.	1c	.	.	.
=9-	=9-	=9-	=9-	=9-	=9-
0Dl;;	-ctus.	0dl;;	-ctus	0Al;;	-ctus.
!LO:LB:g=original	!	!LO:LB:g=original	!	!LO:LB:g=original	!
=10-	=10-	=10-	=10-	=10-	=10-
*M2/1	*	*M2/1	*	*M2/1	*
*met(C|)	*	*met(C|)	*	*met(C|)	*
*lig	*	*	*	*	*
!	!	!LO:TX:b:t=P:problem=♯ below	!	!	!
!	!	!LO:N:acc=#	!	!	!
1GG	SAn-	1Bn	SAn-	0G	SAn-
1C	.	0c	.	.	.
*Xlig	*	*	*	*	*
=11-	=11-	=11-	=11-	=11-	=11-
1FF	-ctus	.	.	1A	.
2.GG/	San-	2B-y\	.	1G	.
.	.	2.d\	.	.	.
4AA/	.	.	.	.	.
=12-	=12-	=12-	=12-	=12-	=12-
*lig	*	*	*	*	*
1BB-	.	.	.	1F	ctus
.	.	4c\	.	.	.
.	.	4B-\	.	.	.
.	.	4A/	.	.	.
1C	.	2G/	.	1.c	San-
.	.	2A/	.	.	.
*Xlig	*	*	*	*	*
=13-	=13-	=13-	=13-	=13-	=13-
!	!	!LO:TX:b:t=P:problem=♯ below	!	!	!
0D	.	2F#X/	.	.	.
.	.	1G	.	2B-\	.
.	.	.	.	1A	.
!	!	!LO:TX:b:t=P:problem=♯ below	!	!	!
.	.	2F#X/	.	.	.
=14-	=14-	=14-	=14-	=14-	=14-
!	!	!	!	!LO:TX:t=P:problem=♯ above	!
!LO:TX:t=P:global:problem=rozdzielacz słów	!	!LO:TX:t=P:global:problem=rozdzielacz słów	!	!LO:N:acc=#	!
2GG,</	-ctus	4G,</	-ctus	2Bn\	-ctus
.	.	2G/	Do-	.	.
2.C/	D(o-	.	.	2.c\	D(o-
*	*	*custos:G	*	*	*
.	.	4G/	-mi-	.	.
!	!	!LO:PB:g=original	!	!	!
.	.	2G/	-nus	.	.
4C/	-mi)-	.	.	4c\	-mi)-
2C/	-nus	1c	De-	2G/	-nus
=15-	=15-	=15-	=15-	=15-	=15-
1F	De-	.	.	1A	De-
.	.	1A	-us	.	.
1D	-us	.	.	1A	-us
.	.	2.d\	Sab-	.	.
=16-	=16-	=16-	=16-	=16-	=16-
*lig	*	*	*	*lig	*
1G	Sab-	.	.	1B-	Sa-
.	.	4c\	.	.	.
.	.	1B-	.	.	.
1.F	.	.	.	1.c	.
.	.	4A/	.	.	.
.	.	4G/	.	.	.
*Xlig	*	*	*	*Xlig	*
=17-	=17-	=17-	=17-	=17-	=17-
.	.	2A/	.	.	.
*custos:BB-	*	*	*	*custos:d	*
2F\	-ba-	2A/	-ba-	2c\	-ba-
!LO:LB:g=original	!	!	!	!LO:LB:g=original	!
2BB-,</	-oth	1B-	-oth	2d\	-oth
2.B-\	Ple-	.	.	2.d\	Ple-
=18-	=18-	=18-	=18-	=18-	=18-
.	.	0r	.	.	.
4B-\	-ni	.	.	4d\	-ni
2A\	ſunt	.	.	2c\	ſunt
1B-	Cae-	.	.	1d	Cae-
=19-	=19-	=19-	=19-	=19-	=19-
2F\	-li	2rc	.	2A/	-li
2A\	et	2.f\	Ple-	2c\	et
1G	ter-	.	.	2d\	ter-
.	.	4f\	-ni	.	.
.	.	2e\	ſunt	4c\	.
.	.	.	.	4B-\	.
=20-	=20-	=20-	=20-	=20-	=20-
2F,<\	-ra	1f	Cae-	1A	-ra
2.F\	ple-	.	.	.	.
.	.	2c\	-li	2r	.
4F\	-ni	.	.	.	.
2Eny\	ſunt	2e\	et	2.c\	Ple-
=21-	=21-	=21-	=21-	=21-	=21-
*	*	*custos:c	*	*	*
1G	Cae-	1d	ter-	.	.
.	.	.	.	4c\	-ni
!	!	!	!	!LO:TX:b:t=P:problem=♯ below	!
!	!	!	!	!LO:N:acc=#	!
.	.	.	.	2Bn\	ſunt
!	!	!LO:LB:g=original	!	!	!
2C/	-li	2c\	-ra	1c	Cae-
2E\	et	2.c\	ple-	.	.
=22-	=22-	=22-	=22-	=22-	=22-
1D	ter-	.	.	2F/	-li
.	.	4c\	-ni	.	.
!	!	!LO:TX:b:t=P:problem=♯ below	!	!	!
!	!	!LO:N:acc=#	!	!	!
.	.	2Bn\	ſunt	2F/	et
1C	-ra	1c	Cae-	1G	ter-
=23-	=23-	=23-	=23-	=23-	=23-
*	*	*	*	*custos:c	*
2r	.	2Fny/	-li	1A	-ra
*	*ij	*	*	*	*
2.F\	ple-	2A/	et	.	.
!	!	!	!	!LO:PB:g=original	!
.	.	1G	ter-	2r	.
4F\	-ni	.	.	.	.
*custos:F	*	*	*	*	*
2E\	ſunt	.	.	2.c\	Ple-
!LO:LB:g=original	!	!	!	!	!
=24-	=24-	=24-	=24-	=24-	=24-
1F	Cae-	1A	-ra	.	.
.	.	.	.	4c\	-ni
.	.	.	.	2A/	ſunt
2C/	-li	2r	.	1c	Cae-
2E\	et	2.c\	ple-	.	.
=25-	=25-	=25-	=25-	=25-	=25-
1D	ter-	.	.	2F/	-li
.	.	4c\	-ni	.	.
!	!	!LO:TX:b:t=P:problem=♯ below	!	!	!
!	!	!LO:N:acc=#	!	!	!
.	.	2Bn\	ſunt	2F/	et
1C,<	-ra	1c	Cae-	(<2G/	ter-
*	*Xij	*	*	*	*
.	.	.	.	1A)	.
=26-	=26-	=26-	=26-	=26-	=26-
2.D/	glo-	2F/	-li	.	.
!	!	!	!	!LO:TX:t=P:global:problem=rozdzielacz słów	!
.	.	2A/	et	1d,<	-ra
4D/	-ri-	.	.	.	.
2BB-/	-a	2G/	ter-	.	.
*	*	*custos:A	*	*	*
2C/	.	2G/	-ra	2.c\	glo-
!	!	!LO:LB:g=original	!	!	!
=27-	=27-	=27-	=27-	=27-	=27-
*lig	*	*	*	*	*
1FF	tu-	4A/	glo-	.	.
.	.	4B-y\	-ri-	4B-y\	-ri-
.	.	1c	-a	2A/	-a
1GG	.	.	.	1G	tu-
!	!	!LO:TX:b:t=P:problem=♯ below	!	!	!
!	!	!LO:N:acc=#	!	!	!
.	.	2Bn\	tu-	.	.
*Xlig	*	*	*	*	*
=28-	=28-	=28-	=28-	=28-	=28-
1C	-a	1c	-a	2G,</	-a
.	.	.	.	2G/	O-
2r	.	2r	.	1.c	-ſan-
2C/	O-	2G/	O-	.	.
=29-	=29-	=29-	=29-	=29-	=29-
1.F	-ſan-	1.A	-ſan-	.	.
*	*	*	*	*custos:c	*
.	.	.	.	2A/	-na
!	!	!	!	!LO:LB:g=original	!
.	.	.	.	1.c	in
2E\	-na	2G/	-na	.	.
=30-	=30-	=30-	=30-	=30-	=30-
2F\	in	4A/	in	.	.
.	.	4A/	ex-	.	.
2G\	ex-	1G	-cel-	2B-\	ex-
1D	-cel-	.	.	1A	-cel-
!	!	!LO:TX:b:t=P:problem=♯ below	!	!	!
.	.	2F#X/	.	.	.
=31-	=31-	=31-	=31-	=31-	=31-
*custos:GG	*	*	*	*	*
!	!	!	!	!LO:TX:b:t=P:problem=♯ below	!
!	!	!	!	!LO:N:acc=#	!
1GG	-sis	1G	-sis	1Bn	-sis
!LO:PB:g=original	!	!	!	!	!
2rGG	.	2r	.	2r	.
!	!	!	!	!LO:TX:b:t=P:problem=♯ below	!
!	!	!	!	!LO:N:acc=#	!
2GG/	O-	2d\	O-	2Bn\	O-
=32-	=32-	=32-	=32-	=32-	=32-
1.C	-ſan-	1.e	-ſan-	1.c	-ſan-
2BB-/	-na	2d\	-na	2d\	-na
=33-	=33-	=33-	=33-	=33-	=33-
2C/	in	4e\	in	2c\	in
.	.	4e\	ex-	.	.
2D/	ex-	1d	-cel-	2A/	ex-
1AA	-cel-	.	.	1A	-cel-
*	*	*custos:d	*	*	*
.	.	2c\	.	.	.
!	!	!LO:LB:g=original	!	!	!
=34-	=34-	=34-	=34-	=34-	=34-
1D	-sis	1d	-ſis	2A,</	-ſis
*	*ij	*	*ij	*	*ij
.	.	.	.	2A/	O-
2r	.	2r	.	1.d	-ſan-
2D/	O-	2A/	O-	.	.
=35-	=35-	=35-	=35-	=35-	=35-
1.G	-ſan-	1.B-y	-ſan-	.	.
.	.	.	.	2B-y\	-na
.	.	.	.	1.d	in
!LO:TX:b:t=P:problem=♯ below	!	!	!	!	!
2F#X\	-na	2A/	-na	.	.
=36-	=36-	=36-	=36-	=36-	=36-
2G\	in	2B-\	in	.	.
2C/	ex-	2G/	ex-	2c\	ex-
!	!	!LO:TX:t=P:problem=♯ above	!	!	!
0D	-cel-	2F#X/	-cel-	2B-\	-cel-
.	.	1G	.	4A/	.
.	.	.	.	4G/	.
=37-	=37-	=37-	=37-	=37-	=37-
.	.	.	.	1A	.
!	!	!LO:TX:t=P:problem=♯ above	!	!	!
.	.	2F#X/	.	.	.
!	!	!	!	!LO:TX:t=P:problem=fermata above/below	!
1GG;;	-sis	1Gl;;	-ſis	1B-;l	-ſis
*	*Xij	*	*Xij	*	*Xij
!LO:LB:g=original	!	!LO:LB:g=original	!	!LO:LB:g=original	!
=38-	=38-	=38-	=38-	=38-	=38-
*M2/1	*	*M2/1	*	*M2/1	*
*met(C|)	*	*met(C|)	*	*met(C|)	*
!LO:TX:t=P:problem=partia Tenor. dopisana pomocniczo	!	!	!	!LO:TX:t=P:problem=brak oznaczenie menzuralnego	!
0r	.	1.G	Be-	00r	.
.	.	2G/	-ne-	.	.
=39-	=39-	=39-	=39-	=39-	=39-
1r	.	1B-	-di-	.	.
1.D	Be-	2A/	-ctus	.	.
.	.	2A/	qui	.	.
=40-	=40-	=40-	=40-	=40-	=40-
.	.	1.d	Ve-	00r	.
2D/	-ne-	.	.	.	.
1E-X	-di-	.	.	.	.
.	.	2c\	.	.	.
=41-	=41-	=41-	=41-	=41-	=41-
2D/	-ctus	2.d\	.	.	.
2D/	qui	.	.	.	.
.	.	4c\	.	.	.
1.G	Ve-	4B-\	.	.	.
.	.	4A/	.	.	.
.	.	1B-	.	.	.
=42-	=42-	=42-	=42-	=42-	=42-
.	.	.	.	1r	.
2Fny\	.	2A/	.	.	.
2E-X\	.	2G/	.	2r	.
2C/	.	1c	.	1G	Be-
=43-	=43-	=43-	=43-	=43-	=43-
0GG	.	.	.	.	.
.	.	2B-\	.	2G/	-ne-
*	*	*custos:A	*	*	*
.	.	1G	-nit	1B-	-di-
!	!	!LO:LB:g=original	!	!	!
=44-	=44-	=44-	=44-	=44-	=44-
1D	.	1r	.	2A/	-ctus
.	.	.	.	1d	qui
*custos:D	*	*	*	*	*
0AA	-nit	2r	.	.	.
.	.	1A	Be-	4c\	.
!	!	!	!	!LO:TX:b:t=P:problem=♯ below	!
!	!	!	!	!LO:N:acc=#	!
.	.	.	.	4Bn\	.
=45-	=45-	=45-	=45-	=45-	=45-
!	!	!	!	!LO:TX:b:t=P:problem=♯ below	!
.	.	.	.	1c#X	Ve-
.	.	2A/	-ne-	.	.
!LO:LB:g=original	!	!	!	!	!
2r	.	1B-	-di-	0d	-nit
1D	Be-	.	.	.	.
=46-	=46-	=46-	=46-	=46-	=46-
.	.	2A/	-ctus	.	.
2D/	-ne-	2A/	qui	.	.
1BB-	-di-	1.d	Ve-	1r	.
=47-	=47-	=47-	=47-	=47-	=47-
2AA/	-ctus	.	.	1.A	Be-
!	!	!LO:TX:b:t=P:problem=♯ below	!	!	!
2AA/	qui	2c#X\	.	.	.
2.D/	Ve-	2d,\	-nit	.	.
*	*	*	*ij	*	*
.	.	1D	Be-	2A/	-ne-
4C/	.	.	.	.	.
=48-	=48-	=48-	=48-	=48-	=48-
2BB-/	.	.	.	1B-y	-di-
2GG/	.	2D/	-ne-	.	.
1D	-nit	1.Fny	-di-	2A/	-ctus
*	*	*	*	*custos:d	*
.	.	.	.	2A/	qui
!	!	!	!	!LO:LB:g=original	!
=49-	=49-	=49-	=49-	=49-	=49-
2rBB	.	.	.	2.d\	Ve-
*	*ij	*	*	*	*
1D	Be-	2F/	-ctus	.	.
.	.	.	.	4cny\	.
.	.	2D/	qui	2B-\	.
2D/	-ne-	1d	Ve-	2F/	.
=50-	=50-	=50-	=50-	=50-	=50-
1E-X	-di-	.	.	1G	-nit
.	.	2cny\	.	.	.
2D/	-ctus	2B-\	.	0r	.
2D/	qui	2A/	.	.	.
=51-	=51-	=51-	=51-	=51-	=51-
2.G\	Ve-	2.B-\	.	.	.
*custos:E	*	*custos:G	*	*	*
4F\	.	4A/	.	.	.
!LO:LB:g=original	!	!LO:PB:g=original	!	!	!
1E-X	.	1.G	.	2r	.
.	.	.	.	2G/	in
=52-	=52-	=52-	=52-	=52-	=52-
1D	-nit	.	.	2A/	no-
*	*Xij	*	*	*	*
!	!	!LO:TX:b:t=P:problem=♯ below	!	!	!
.	.	2F#X/	.	4A/	-mi-
.	.	.	.	4A/	-ne
2r	.	1G	-nit	4B-\	Do-
*	*	*	*Xij	*	*
.	.	.	.	4c\	.
2G\	in	.	.	4d\	.
!	!	!	!	!LO:TX:t=P:problem=kreska pseudotaktowa	!
.	.	.	.	4B-\	.
=53-	=53-	=53-	=53-	=53-	=53-
2A\	no-	2r	.	2c\	.
4A\	-mi-	2c\	in	2.f\	.
4A\	-ne	.	.	.	.
2.B-\	Do-	2d\	no-	.	.
.	.	.	.	4e\	.
.	.	4d\	-mi-	4d\	.
!	!	!	!	!LO:TX:t=P:problem=kreska pseudotaktowa	!
4A\	.	4d\	-ne	4c\	.
=54-	=54-	=54-	=54-	=54-	=54-
2G\	.	1e	Do-	2B-\	.
*	*	*	*	*custos:c	*
2G\	-mi-	.	.	2B-\	.
!	!	!	!	!LO:LB:g=original	!
1F	-ni	2.f\	.	2c\	-mi-
.	.	.	.	1F	-ni
.	.	4e\	.	.	.
=55-	=55-	=55-	=55-	=55-	=55-
2r	.	4d\	.	.	.
.	.	4c\	.	.	.
*	*ij	*	*	*	*
2BB-/	in	4B-\	.	2.G/	in
.	.	4d\	-mi-	.	.
2C/	no-	1c	-ni	.	.
.	.	.	.	4G/	no-
4C/	-mi-	.	.	1A	-mi-
4C/	-ne	.	.	.	.
=56-	=56-	=56-	=56-	=56-	=56-
1D	Do-	2rF	.	.	.
.	.	2Fny/	in	2.B-\	-ne
*custos:D	*	*	*	*	*
1E-X	.	2G/	no-	.	.
.	.	.	.	4A/	.
.	.	4G/	-mi-	1G	Do-
.	.	4G/	-ne	.	.
!LO:LB:g=original	!	!	!	!	!
=57-	=57-	=57-	=57-	=57-	=57-
2.D/	.	2.A/	Do-	.	.
!	!	!	!	!LO:TX:b:t=P:problem=♯ below	!
.	.	.	.	2F#X/	-mi-
*	*	*custos:B-	*	*	*
4D/	-mi-	4A/	-mi-	.	.
!	!	!LO:LB:g=original	!	!	!
1GG	-ni	1B-	-ni	1G	-ni
*	*Xij	*	*	*	*
=58-	=58-	=58-	=58-	=58-	=58-
2rBB	.	2rc	.	2r	.
!	!	!	!	!LO:TX:b:t=P:problem=♯ below	!
!	!	!	!	!LO:N:acc=#	!
2GG/	O-	2d\	O-	2Bn\	O-
2.C/	-ſan-	2.e\	-san-	2.c\	-ſan-
!LO:TX:b:t=P:problem=♯ below	!	!	!	!	!
!LO:N:acc=#	!	!	!	!LO:TX:t=P:problem=kreska pseudotaktowa	!
4BBn/	-na	4d\	-na	4d\	-na
=59-	=59-	=59-	=59-	=59-	=59-
4C/	in	4e\	in	4c\	in
4D/	ex-	2d\	ex-	4A/	ex-
!	!	!	!	!LO:TX:t=P:problem=kreska pseudotaktowa	!
2AA/	-cel-	.	.	2A/	-cel-
!	!	!LO:TX:b:t=P:problem=♯ below	!	!	!
.	.	4c#X\	-cel-	.	.
2D,</	-ſis	2d,<\	-ſis	4A,</	-ſis
*	*	*	*	*custos:d	*
.	.	.	.	4A/	O-
!	!	!	!	!LO:LB:g=original	!
2D/	O-	2A/	O-	2.d\	-ſan-
=60-	=60-	=60-	=60-	=60-	=60-
2.G\	-ſan-	2.B-\	-ſan-	.	.
.	.	.	.	4B-y\	-na
.	.	.	.	2.d\	in
!LO:TX:b:t=P:problem=♯ below	!	!	!	!	!
4F#X\	-na	4A/	-na	.	.
4G\	in	4B-\	in	.	.
4E-X\	ex-	4B-\	ex-	4e-X\	ex-
!	!	!	!	!LO:TX:t=P:problem=kreska pseudotaktowa	!
2Fn\	-cel-	2A/	-cel-	2c\	-cel-
=61-	=61-	=61-	=61-	=61-	=61-
2BB-,</	-sis	2B-\	-ſis	2d,<\	-ſis
*	*	*	*ij	*	*
*custos:F	*	*	*	*	*
2BB-/	O-	2B-\	O-	2d\	O-
!LO:LB:g=original	!	!	!	!	!
2.F\	-ſan-	2.A/	-ſan-	2.c\	-ſan-
4Eny\	-na	4G/	-na	4c\	-na
=62-	=62-	=62-	=62-	=62-	=62-
4F\	in	4A/	in	4c\	in
4BB-/	ex-	4B-\	ex-	4d\	ex-
*	*	*custos:A	*	*	*
!	!	!	!	!LO:TX:t=P:problem=kreska pseudotaktowa	!
2C/	-cel-	2G/	-cel-	2c\	-cel-
!	!	!LO:LB:g=original	!	!	!
2FF/	-ſis	2A,</	-ſis	2c,<\	-ſis
*	*ij	*	*Xij	*	*ij
2BB-/	O-	2d\	O-	2B-\	O-
=63-	=63-	=63-	=63-	=63-	=63-
2.F\	-ſan-	2.cny\	-ſan-	2.A/	-ſan-
4E\	-na	4c\	-na	4G/	-na
2F\	in	2c\	in	4A/	in
.	.	.	.	4A/	ex-
2G\	ex-	2B-\	ex-	1G	-cel-
=64-	=64-	=64-	=64-	=64-	=64-
1D	-cel-	1A	-cel-	.	.
!	!	!	!	!LO:TX:b:t=P:problem=♯ below	!
.	.	.	.	2F#X/	.
1GGl;;	-ſis	1B-l;;	-sis.	1Gl;;	-ſis
*	*Xij	*	*	*	*Xij
==	==	==	==	==	==
*-	*-	*-	*-	*-	*-
!!!system-decoration: [s1,s2,s3]
!!!RDF**kern: < = below
!!!RDF**kern: l = terminal long
!!!AIN: 1 empty 1 tenor 1 vox
!!!ENC: Marta Lawrence
!!!END: 2021-03-22
!!!ENC: Andrzej Kubiczek
!!!END: 2021-03-07
